public/img/eulenmuehle-tag_black.svg

<svg width="340" height="65" viewBox="0 0 340 65" fill="none" xmlns="http://www.w3.org/2000/svg">
<path d="M50.9502 46.0762C51.1318 46.5605 51.2227 47.0247 51.2227 47.4688C51.2227 47.5697 51.2126 47.6807 51.1924 47.8018C51.152 48.266 50.9805 48.6797 50.6777 49.043C49.9512 50.0117 47.3275 50.6374 42.8066 50.9199C41.4544 51.0208 40.5866 51.0915 40.2031 51.1318C35.985 51.9391 31.111 53.8665 25.5811 56.9141L25.2178 57.126C20.4144 59.7497 16.6302 61.0615 13.8652 61.0615H13.4111L12.9873 61.0312C8.64811 60.5267 5.9235 56.3691 4.81348 48.5586C4.53092 46.4798 4.38965 44.0781 4.38965 41.3535C4.38965 40.4857 4.39974 39.5876 4.41992 38.6592C4.48047 36.8024 4.59147 34.8044 4.75293 32.665C3.11816 32.3825 1.97786 31.7367 1.33203 30.7275C1.04948 30.2835 0.908203 29.7992 0.908203 29.2744C0.908203 29.1331 0.918294 29.002 0.938477 28.8809C0.978841 28.4974 1.08984 28.0837 1.27148 27.6396C1.53385 26.9736 2.13932 26.0352 3.08789 24.8242C3.5319 24.2389 3.82454 23.8252 3.96582 23.583C4.69238 22.4124 5.2474 20.3337 5.63086 17.3467C5.8125 15.8936 5.98405 14.8037 6.14551 14.0771C5.76204 14.0771 5.40885 14.057 5.08594 14.0166C2.88607 13.7542 1.47331 13.0075 0.847656 11.7764C0.645833 11.3929 0.544922 10.9691 0.544922 10.5049C0.544922 10.3636 0.555013 10.2122 0.575195 10.0508C0.655924 9.3444 0.938477 8.57747 1.42285 7.75C2.33105 6.19596 4.38965 4.92448 7.59863 3.93555C9.39486 3.37044 10.6562 2.85579 11.3828 2.3916C13.1589 1.22103 14.6322 0.635742 15.8027 0.635742C15.9238 0.635742 16.0449 0.645833 16.166 0.666016C17.2962 0.787109 18.6686 1.5944 20.2832 3.08789C20.7474 3.5319 21.474 3.80436 22.4629 3.90527C22.806 3.94564 23.1794 3.96582 23.583 3.96582C25.2581 3.96582 27.4681 3.63281 30.2129 2.9668C33.0788 2.30078 35.1676 1.96777 36.4795 1.96777C36.7217 1.96777 36.9336 1.97786 37.1152 1.99805L37.3271 2.02832C39.2848 2.25033 40.4453 3.05762 40.8086 4.4502C40.8691 4.6722 40.8994 4.9043 40.8994 5.14648C40.8994 5.28776 40.8893 5.42904 40.8691 5.57031C40.8288 6.07487 40.6673 6.57943 40.3848 7.08398C39.8802 8.03255 39.1335 8.84993 38.1445 9.53613C35.7832 11.1911 32.2311 12.0186 27.4883 12.0186C27.0645 12.0186 26.6305 12.0085 26.1865 11.9883C25.8232 11.9681 25.137 11.9076 24.1279 11.8066C22.917 11.6855 21.8372 11.625 20.8887 11.625C18.1641 11.625 16.5091 12.1396 15.9238 13.1689C15.3184 14.3395 14.8643 16.2266 14.5615 18.8301C14.4808 19.4154 14.4102 20.0511 14.3496 20.7373C14.3496 21.04 14.3294 21.3428 14.2891 21.6455C20.7676 20.7575 26.7516 20.3034 32.2412 20.2832C32.3825 20.2832 32.7054 20.2731 33.21 20.2529C33.8154 20.2327 34.3704 20.2227 34.875 20.2227C35.7025 20.2227 36.3786 20.2529 36.9033 20.3135C38.5986 20.5153 39.749 21.0299 40.3545 21.8574C40.6976 22.3216 40.8691 22.806 40.8691 23.3105V23.5225C40.849 23.7243 40.7884 23.916 40.6875 24.0977C40.3444 25.1068 39.4059 26.0957 37.8721 27.0645C36.6208 27.8516 35.5107 28.3662 34.542 28.6084C32.3219 29.1735 28.9616 29.4561 24.4609 29.4561H24.0068L22.7354 29.4258C22.4124 29.4258 21.8978 29.4056 21.1914 29.3652C20.4648 29.3249 19.819 29.3047 19.2539 29.3047C18.4668 29.3047 17.8311 29.3451 17.3467 29.4258C15.9743 29.6478 15.0257 30.2028 14.501 31.0908C13.6937 32.5036 13.1084 34.7741 12.7451 37.9023L12.6846 38.4775C12.5837 39.6077 12.5332 40.6673 12.5332 41.6562C12.5332 43.9368 12.8258 45.7936 13.4111 47.2266C13.9762 48.5182 14.7633 49.2852 15.7725 49.5273C15.9945 49.5677 16.2165 49.598 16.4385 49.6182C16.7412 49.6585 17.0641 49.6787 17.4072 49.6787C19.7686 49.6787 23.2197 48.821 27.7607 47.1055C29.0524 46.6009 30.001 46.2477 30.6064 46.0459C35.9346 44.2093 40.516 43.291 44.3506 43.291C45.2184 43.291 46.0459 43.3415 46.833 43.4424C47.5192 43.5231 48.165 43.6341 48.7705 43.7754C49.7594 43.9974 50.486 44.7643 50.9502 46.0762ZM74.8662 53.0996C76.1982 56.8333 76.8643 59.5579 76.8643 61.2734C76.8643 63.3724 75.9661 64.4219 74.1699 64.4219C72.9388 64.4219 71.7581 63.9476 70.6279 62.999C69.0537 61.6872 67.8226 58.791 66.9346 54.3105C66.6722 52.9785 66.4704 52.0299 66.3291 51.4648C64.8558 54.1289 62.8275 56.5003 60.2441 58.5791C57.4792 60.7992 54.9766 61.9092 52.7363 61.9092C50.9199 61.9092 49.5072 61.1322 48.498 59.5781C47.4284 57.903 46.8936 55.4004 46.8936 52.0703C46.8936 48.599 47.5495 44.512 48.8613 39.8096C50.5163 33.7751 52.5547 30.7174 54.9766 30.6367H55.0068C55.8949 30.6367 56.5811 30.9294 57.0654 31.5146C57.5498 32.1201 57.792 33.2201 57.792 34.8145C57.792 37.1758 57.2773 40.6068 56.248 45.1074C55.4609 48.5788 55.0674 50.8493 55.0674 51.9189C55.0674 52.3024 55.1178 52.5345 55.2188 52.6152C55.3197 52.6152 55.4609 52.5648 55.6426 52.4639C58.4076 50.7686 60.4561 48.2962 61.7881 45.0469C62.555 43.1699 63.2311 40.415 63.8164 36.7822C64.1797 34.5016 64.5228 32.9678 64.8457 32.1807C65.3704 30.9294 66.1676 30.3037 67.2373 30.3037C69.3363 30.3037 70.8096 31.7568 71.6572 34.6631C72.1618 36.3584 72.5251 39.1738 72.7471 43.1094C72.8682 45.1882 72.9893 46.5807 73.1104 47.2871C73.3324 48.5182 73.9176 50.4557 74.8662 53.0996ZM92.4248 53.3418C92.6468 54.5326 92.7578 55.6123 92.7578 56.5811C92.7578 58.5186 92.3239 60.002 91.4561 61.0312C90.9111 61.6771 90.2249 62 89.3975 62C88.57 62 87.6214 61.6569 86.5518 60.9707C84.251 59.5176 82.8483 53.8161 82.3438 43.8662C82.263 42.2718 82.1924 41.2223 82.1318 40.7178C81.8493 37.3877 81.708 33.9971 81.708 30.5459V28.6992C81.708 20.9089 82.0915 13.2799 82.8584 5.8125L82.8887 5.57031L83.1006 5.44922C84.5335 4.5612 85.9665 4.11719 87.3994 4.11719C88.1663 4.11719 88.8021 4.38965 89.3066 4.93457C90.5176 6.2666 91.123 9.58659 91.123 14.8945C91.123 17.6393 90.9616 20.9089 90.6387 24.7031C90.5378 25.9342 90.4772 26.6911 90.457 26.9736C90.3763 28.5075 90.3359 30.0514 90.3359 31.6055C90.3359 38.528 91.0322 45.7734 92.4248 53.3418ZM106.744 46.1064C108.036 46.1064 109.095 45.6523 109.923 44.7441C110.69 43.9167 111.134 42.8874 111.255 41.6562C111.275 41.4544 111.285 41.2526 111.285 41.0508C111.285 40.082 111.043 39.2243 110.559 38.4775C109.913 37.4684 108.964 36.8831 107.713 36.7217C107.551 36.7015 107.4 36.6914 107.259 36.6914C106.451 36.6914 105.826 37.0244 105.382 37.6904C104.918 38.3766 104.686 39.3252 104.686 40.5361C104.686 43.2406 105.372 45.0973 106.744 46.1064ZM130.842 43.5938C132.315 42.5039 133.425 41.959 134.172 41.959C134.919 41.959 135.292 42.5241 135.292 43.6543C134.808 47.0651 132.9 50.6475 129.57 54.4014C126.321 58.0342 123.021 60.4359 119.671 61.6064C118.46 61.8688 117.259 62 116.068 62C110.155 62 104.706 58.6497 99.7207 51.9492C98.0254 49.6686 97.1777 46.5404 97.1777 42.5645C97.1777 40.8893 97.3291 39.0527 97.6318 37.0547C98.1768 33.4622 101.043 31.0908 106.229 29.9404C106.936 29.779 107.632 29.6982 108.318 29.6982C110.195 29.6982 111.951 30.3037 113.586 31.5146C115.443 32.887 117.027 34.9355 118.339 37.6602C118.682 38.8913 118.854 40.0417 118.854 41.1113C118.854 44.2799 117.37 46.833 114.403 48.7705C113.919 49.0934 113.273 49.3962 112.466 49.6787C111.558 50.0016 111.013 50.2035 110.831 50.2842C110.407 50.5062 110.195 50.7887 110.195 51.1318V51.1924C110.236 51.6162 110.589 52.1914 111.255 52.918C112.668 54.4518 114.292 55.2188 116.129 55.2188C116.654 55.2188 117.199 55.1582 117.764 55.0371C120.125 54.5124 122.486 52.8574 124.848 50.0723C128.016 46.3789 130.014 44.2194 130.842 43.5938ZM163.688 53.6143C164.233 55.6729 164.506 57.3379 164.506 58.6094C164.506 59.6387 164.324 60.3955 163.961 60.8799C163.376 61.6266 162.437 62 161.146 62C160.641 62 160.076 61.9395 159.45 61.8184C157.735 61.5156 156.372 59.4469 155.363 55.6123C154.758 53.3519 154.092 49.4466 153.365 43.8965C152.861 40.1022 152.467 37.6803 152.185 36.6309C149.157 38.8509 147.028 41.3333 145.797 44.0781C144.788 46.3385 144.263 49.154 144.223 52.5244C144.202 53.9775 143.647 55.6325 142.558 57.4893C141.306 59.6286 139.964 60.6982 138.531 60.6982C137.3 60.6982 136.2 59.8405 135.231 58.125C134.646 57.0755 134.354 55.3398 134.354 52.918C134.354 50.7181 134.596 47.9531 135.08 44.623C135.504 41.7168 135.726 39.7288 135.746 38.6592C135.766 36.54 136.321 34.986 137.411 33.9971C138.178 33.2705 139.147 32.9072 140.317 32.9072C140.782 32.9072 141.286 32.9678 141.831 33.0889C143.143 33.3714 143.849 33.8255 143.95 34.4512C144.616 33.7448 145.484 32.5641 146.554 30.9092C147.543 29.3753 148.34 28.2552 148.945 27.5488C149.41 27.0241 150.156 26.4388 151.186 25.793C152.578 24.9453 153.809 24.5215 154.879 24.5215C156.171 24.5215 157.109 25.137 157.694 26.3682C159.369 30.223 160.802 36.2575 161.993 44.4717C162.437 47.3981 162.79 49.598 163.053 51.0713C163.133 51.5557 163.345 52.4033 163.688 53.6143ZM198.715 29.3047C202.63 29.9303 205.869 34.098 208.433 41.8076C209.078 43.7451 209.977 46.9238 211.127 51.3438C212.116 55.1582 212.893 57.7718 213.458 59.1846C213.458 60.9202 212.731 61.7881 211.278 61.7881C210.834 61.7881 210.32 61.7074 209.734 61.5459C207.494 60.9202 205.9 59.9414 204.951 58.6094C203.902 57.1361 202.933 54.694 202.045 51.2832C201.096 47.7109 200.198 45.2386 199.351 43.8662C199.351 43.8864 198.917 45.4202 198.049 48.4678C197.363 50.8695 196.707 52.8574 196.081 54.4316C194.144 59.3763 191.994 61.8991 189.633 62H189.572C187.695 62 186.232 58.8112 185.183 52.4336C184.456 48.054 184.093 45.834 184.093 45.7734C183.689 43.735 183.215 42.7158 182.67 42.7158C182.67 42.8773 181.156 47.1559 178.129 55.5518C177.16 58.2764 176.101 60.0726 174.95 60.9404C174.325 61.4046 173.659 61.6367 172.952 61.6367C171.963 61.6367 170.883 61.1927 169.713 60.3047H169.743C169.844 60.3047 169.895 59.3359 169.895 57.3984C169.895 54.7142 169.794 50.1833 169.592 43.8057V43.7148C169.592 42.847 169.834 41.959 170.318 41.0508C170.843 40.082 171.105 39.1738 171.105 38.3262C171.105 37.2363 171.832 36.641 173.285 36.54C175.061 36.4391 175.969 36.3786 176.01 36.3584C176.535 35.8538 177.251 35.0365 178.159 33.9062C179.047 32.8164 179.723 32.0596 180.188 31.6357C181.055 30.8688 181.984 30.4854 182.973 30.4854C183.8 30.4854 184.678 30.7578 185.606 31.3027C186.898 32.0697 188.069 34.4814 189.118 38.5381C190.43 43.6038 191.146 46.2679 191.268 46.5303C191.53 45.9854 192.519 42.7259 194.234 36.752C195.425 32.6146 196.919 30.1322 198.715 29.3047ZM244.791 53.0996C246.123 56.8333 246.789 59.5579 246.789 61.2734C246.789 63.3724 245.891 64.4219 244.095 64.4219C242.864 64.4219 241.683 63.9476 240.553 62.999C238.979 61.6872 237.747 58.791 236.859 54.3105C236.597 52.9785 236.395 52.0299 236.254 51.4648C234.781 54.1289 232.752 56.5003 230.169 58.5791C227.404 60.7992 224.901 61.9092 222.661 61.9092C220.845 61.9092 219.432 61.1322 218.423 59.5781C217.353 57.903 216.818 55.4004 216.818 52.0703C216.818 48.599 217.474 44.512 218.786 39.8096C220.441 33.7751 222.479 30.7174 224.901 30.6367H224.932C225.82 30.6367 226.506 30.9294 226.99 31.5146C227.475 32.1201 227.717 33.2201 227.717 34.8145C227.717 37.1758 227.202 40.6068 226.173 45.1074C225.386 48.5788 224.992 50.8493 224.992 51.9189C224.992 52.3024 225.043 52.5345 225.144 52.6152C225.244 52.6152 225.386 52.5648 225.567 52.4639C228.332 50.7686 230.381 48.2962 231.713 45.0469C232.48 43.1699 233.156 40.415 233.741 36.7822C234.104 34.5016 234.448 32.9678 234.771 32.1807C235.295 30.9294 236.092 30.3037 237.162 30.3037C239.261 30.3037 240.734 31.7568 241.582 34.6631C242.087 36.3584 242.45 39.1738 242.672 43.1094C242.793 45.1882 242.914 46.5807 243.035 47.2871C243.257 48.5182 243.842 50.4557 244.791 53.0996ZM227.384 15.7119C227.263 17.5485 226.647 19.0016 225.537 20.0713C224.609 20.9391 223.559 21.373 222.389 21.373H222.086C220.774 21.2721 219.715 20.6868 218.907 19.6172C218.181 18.6283 217.817 17.4173 217.817 15.9844C217.817 15.7624 217.827 15.5404 217.848 15.3184C217.888 14.7533 217.969 14.1781 218.09 13.5928C218.393 12.4626 219.059 11.6149 220.088 11.0498C220.794 10.6462 221.561 10.4443 222.389 10.4443C222.631 10.4443 222.863 10.4544 223.085 10.4746C224.256 10.6159 225.234 11.1104 226.021 11.958C226.91 12.9268 227.364 14.1781 227.384 15.7119ZM243.368 15.7119C243.247 17.5485 242.632 19.0016 241.521 20.0713C240.593 20.9391 239.544 21.373 238.373 21.373H238.07C236.758 21.2721 235.699 20.6868 234.892 19.6172C234.165 18.6283 233.802 17.4173 233.802 15.9844C233.802 15.7624 233.812 15.5404 233.832 15.3184C233.872 14.7533 233.953 14.1781 234.074 13.5928C234.377 12.4626 235.043 11.6149 236.072 11.0498C236.799 10.6462 237.576 10.4443 238.403 10.4443C238.625 10.4443 238.847 10.4544 239.069 10.4746C240.24 10.6159 241.219 11.1104 242.006 11.958C242.894 12.9268 243.348 14.1781 243.368 15.7119ZM281.967 58.0947V58.3369C281.826 60.5771 280.766 61.6973 278.788 61.6973C276.548 61.6973 274.338 60.7285 272.158 58.791C270.16 56.4701 268.606 52.2721 267.496 46.1973C267.314 45.2285 267.214 44.6735 267.193 44.5322C266.709 45.4404 265.922 47.3073 264.832 50.1328C263.359 53.9674 262.198 56.6416 261.351 58.1553C259.897 60.7184 258.465 62 257.052 62C255.578 62 254.327 61.4349 253.298 60.3047C251.764 58.6094 250.997 56.4902 250.997 53.9473C250.997 53.5436 251.017 53.1299 251.058 52.7061C251.3 50.042 251.421 46.0156 251.421 40.627C251.441 38.7298 251.451 37.2262 251.451 36.1162C251.532 30.2633 251.845 24.8141 252.39 19.7686C253.419 10.4443 255.013 5.78223 257.173 5.78223C257.556 5.78223 257.93 5.91341 258.293 6.17578C259.746 6.8418 260.493 9.1123 260.533 12.9873V13.1992C260.533 15.8633 260.17 19.9098 259.443 25.3389C259.181 27.3369 259.04 28.5983 259.02 29.123C258.777 33.1797 258.656 36.8831 258.656 40.2334C258.656 41.7269 258.676 43.1396 258.717 44.4717C259.867 43.3011 260.977 41.1214 262.047 37.9326C262.794 35.6318 263.48 33.9769 264.105 32.9678C265.135 31.2523 266.548 30.0212 268.344 29.2744C268.747 29.0928 269.141 29.002 269.524 29.002C271.28 29.002 272.703 30.6973 273.793 34.0879C274.58 36.5501 275.276 40.2536 275.882 45.1982C275.983 46.0055 276.043 46.4899 276.063 46.6514C277.436 52.04 279.343 55.804 281.785 57.9434L281.967 58.0947ZM296.347 53.3418C296.569 54.5326 296.68 55.6123 296.68 56.5811C296.68 58.5186 296.246 60.002 295.378 61.0312C294.833 61.6771 294.147 62 293.319 62C292.492 62 291.543 61.6569 290.474 60.9707C288.173 59.5176 286.77 53.8161 286.266 43.8662C286.185 42.2718 286.114 41.2223 286.054 40.7178C285.771 37.3877 285.63 33.9971 285.63 30.5459V28.6992C285.63 20.9089 286.013 13.2799 286.78 5.8125L286.811 5.57031L287.022 5.44922C288.455 4.5612 289.888 4.11719 291.321 4.11719C292.088 4.11719 292.724 4.38965 293.229 4.93457C294.439 6.2666 295.045 9.58659 295.045 14.8945C295.045 17.6393 294.883 20.9089 294.561 24.7031C294.46 25.9342 294.399 26.6911 294.379 26.9736C294.298 28.5075 294.258 30.0514 294.258 31.6055C294.258 38.528 294.954 45.7734 296.347 53.3418ZM310.666 46.1064C311.958 46.1064 313.017 45.6523 313.845 44.7441C314.612 43.9167 315.056 42.8874 315.177 41.6562C315.197 41.4544 315.207 41.2526 315.207 41.0508C315.207 40.082 314.965 39.2243 314.48 38.4775C313.835 37.4684 312.886 36.8831 311.635 36.7217C311.473 36.7015 311.322 36.6914 311.181 36.6914C310.373 36.6914 309.748 37.0244 309.304 37.6904C308.84 38.3766 308.607 39.3252 308.607 40.5361C308.607 43.2406 309.294 45.0973 310.666 46.1064ZM334.764 43.5938C336.237 42.5039 337.347 41.959 338.094 41.959C338.84 41.959 339.214 42.5241 339.214 43.6543C338.729 47.0651 336.822 50.6475 333.492 54.4014C330.243 58.0342 326.943 60.4359 323.593 61.6064C322.382 61.8688 321.181 62 319.99 62C314.077 62 308.628 58.6497 303.643 51.9492C301.947 49.6686 301.1 46.5404 301.1 42.5645C301.1 40.8893 301.251 39.0527 301.554 37.0547C302.099 33.4622 304.965 31.0908 310.151 29.9404C310.858 29.779 311.554 29.6982 312.24 29.6982C314.117 29.6982 315.873 30.3037 317.508 31.5146C319.365 32.887 320.949 34.9355 322.261 37.6602C322.604 38.8913 322.775 40.0417 322.775 41.1113C322.775 44.2799 321.292 46.833 318.325 48.7705C317.841 49.0934 317.195 49.3962 316.388 49.6787C315.479 50.0016 314.935 50.2035 314.753 50.2842C314.329 50.5062 314.117 50.7887 314.117 51.1318V51.1924C314.158 51.6162 314.511 52.1914 315.177 52.918C316.59 54.4518 318.214 55.2188 320.051 55.2188C320.576 55.2188 321.12 55.1582 321.686 55.0371C324.047 54.5124 326.408 52.8574 328.77 50.0723C331.938 46.3789 333.936 44.2194 334.764 43.5938Z" fill="black"/>
</svg>

<svg xmlns="http://www.w3.org/2000/svg" width="340" height="65" fill="none"><path fill="#000" d="M50.95 46.076q.273.727.273 1.393 0 .15-.03.333-.061.696-.515 1.241-1.09 1.453-7.871 1.877-2.029.151-2.604.212-6.327 1.211-14.622 5.782l-.363.212q-7.206 3.936-11.353 3.936h-.454l-.424-.03q-6.508-.758-8.174-12.473-.423-3.118-.423-7.206 0-1.3.03-2.694.09-2.785.333-5.994-2.452-.423-3.421-1.937a2.65 2.65 0 0 1-.394-1.847q.06-.575.333-1.241.394-1 1.817-2.816.666-.878.878-1.241 1.089-1.756 1.665-6.236.272-2.18.515-3.27-.576 0-1.06-.06-3.3-.395-4.238-2.24a2.7 2.7 0 0 1-.303-1.272q0-.212.03-.454.12-1.06.848-2.301 1.362-2.331 6.176-3.814 2.694-.849 3.784-1.544Q14.048.636 15.803.636q.18 0 .363.03 1.695.181 4.117 2.422.696.666 2.18.817.514.06 1.12.06 2.513 0 6.63-.998 4.299-1 6.267-1 .363 0 .635.031l.212.03q2.937.333 3.482 2.422.09.333.09.696 0 .213-.03.424a3.7 3.7 0 0 1-.484 1.514q-.757 1.423-2.24 2.452-3.543 2.483-10.657 2.483-.635 0-1.302-.03a57 57 0 0 1-2.058-.182 33 33 0 0 0-3.24-.182q-4.086 0-4.964 1.544-.909 1.756-1.362 5.661-.122.878-.212 1.907 0 .455-.06.909 9.717-1.333 17.951-1.363.212 0 .969-.03.907-.03 1.665-.03 1.242 0 2.028.09 2.544.303 3.452 1.544.514.697.514 1.454v.212q-.03.302-.181.575-.516 1.514-2.816 2.967-1.876 1.18-3.33 1.543-3.33.848-10.081.848h-.454l-1.272-.03q-.484 0-1.544-.06-1.09-.061-1.937-.061-1.18 0-1.907.12-2.059.334-2.846 1.666-1.211 2.12-1.756 6.811l-.06.575q-.152 1.695-.152 3.18 0 3.42.878 5.57.847 1.937 2.362 2.3.333.06.666.091.453.06.968.06 3.543 0 10.354-2.572a67 67 0 0 1 2.845-1.06Q38.6 43.29 44.351 43.29q1.301 0 2.482.151 1.029.122 1.938.333 1.482.334 2.18 2.301M74.866 53.1q1.998 5.6 1.998 8.173 0 3.15-2.694 3.149-1.847 0-3.542-1.423-2.361-1.968-3.693-8.689-.395-1.998-.606-2.845-2.21 3.996-6.085 7.114-4.147 3.33-7.508 3.33-2.724 0-4.238-2.33-1.605-2.514-1.604-7.509 0-5.207 1.967-12.26 2.483-9.053 6.116-9.173h.03q1.332 0 2.058.878.727.907.727 3.3 0 3.541-1.544 10.292-1.18 5.207-1.18 6.812 0 .575.15.696.153 0 .425-.151 4.147-2.543 6.145-7.417 1.15-2.815 2.028-8.265.546-3.42 1.03-4.601.787-1.878 2.391-1.877 3.15 0 4.42 4.36.757 2.542 1.09 8.445.181 3.12.363 4.178.333 1.847 1.756 5.813m17.559.242q.333 1.785.333 3.24 0 2.905-1.302 4.45-.817.968-2.059.968-1.241 0-2.845-1.03-3.452-2.178-4.208-17.104-.122-2.392-.212-3.148-.424-4.995-.424-10.172v-1.847q0-11.686 1.15-22.886l.03-.243.213-.12q2.149-1.333 4.298-1.333 1.15 0 1.908.818 1.815 1.998 1.816 9.96 0 4.116-.484 9.808-.152 1.847-.182 2.27a88 88 0 0 0-.121 4.633q0 10.383 2.089 21.736m14.319-7.236q1.938 0 3.179-1.362 1.15-1.241 1.332-3.088.03-.302.03-.605 0-1.453-.726-2.574-.97-1.514-2.846-1.755a4 4 0 0 0-.454-.03q-1.212 0-1.877.998-.696 1.03-.696 2.846 0 4.057 2.058 5.57m24.098-2.512q2.21-1.635 3.33-1.635t1.12 1.695q-.727 5.116-5.722 10.747-4.874 5.45-9.899 7.205a17 17 0 0 1-3.603.394q-8.87 0-16.347-10.05-2.543-3.422-2.543-9.385 0-2.514.454-5.51.818-5.389 8.597-7.115a9.4 9.4 0 0 1 2.089-.242q2.815 0 5.268 1.817 2.785 2.058 4.753 6.145.515 1.847.515 3.451 0 4.753-4.451 7.66-.726.483-1.937.908-1.362.484-1.635.605-.636.333-.636.848v.06q.061.637 1.06 1.726 2.119 2.3 4.874 2.3.787 0 1.635-.18 3.541-.788 7.084-4.966 4.752-5.54 5.994-6.478m32.846 10.02q.818 3.089.818 4.995 0 1.545-.545 2.27Q163.083 62 161.146 62q-.757 0-1.696-.182-2.573-.453-4.087-6.206-.907-3.39-1.998-11.715-.756-5.692-1.18-7.266-4.542 3.33-6.388 7.447-1.514 3.39-1.574 8.446-.031 2.18-1.665 4.965-1.878 3.21-4.027 3.21-1.846 0-3.3-2.574-.877-1.574-.877-5.207 0-3.3.726-8.295.636-4.359.666-5.964.03-3.178 1.665-4.662 1.15-1.09 2.906-1.09.697 0 1.514.182 1.968.423 2.119 1.362.999-1.06 2.604-3.542 1.484-2.301 2.391-3.36.697-.787 2.241-1.756 2.088-1.271 3.693-1.271 1.938 0 2.815 1.846 2.513 5.783 4.299 18.104.666 4.389 1.06 6.6.12.726.635 2.542m35.027-24.31q5.872.939 9.718 12.504.968 2.906 2.694 9.536 1.483 5.721 2.331 7.84 0 2.604-2.18 2.604-.665 0-1.544-.242-3.36-.939-4.783-2.937-1.574-2.21-2.906-7.326-1.424-5.358-2.694-7.417 0 .03-1.302 4.602-1.029 3.602-1.968 5.964-2.906 7.416-6.448 7.568h-.061q-2.815 0-4.389-9.566-1.09-6.57-1.09-6.66-.606-3.058-1.423-3.058 0 .242-4.541 12.836-1.453 4.086-3.179 5.388-.937.697-1.998.697-1.484 0-3.239-1.332h.03q.152 0 .152-2.907 0-4.026-.303-13.592v-.091q0-1.302.726-2.664.787-1.453.787-2.725 0-1.635 2.18-1.786 2.664-.15 2.725-.182.787-.757 2.149-2.452 1.332-1.635 2.029-2.27 1.301-1.15 2.785-1.15 1.24 0 2.633.817 1.938 1.15 3.512 7.235 1.967 7.599 2.15 7.992.393-.817 2.966-9.778 1.787-6.206 4.481-7.447M244.791 53.1q1.998 5.6 1.998 8.173 0 3.15-2.694 3.149-1.847 0-3.542-1.423-2.362-1.968-3.694-8.689a66 66 0 0 0-.605-2.845q-2.21 3.996-6.085 7.114-4.148 3.33-7.508 3.33-2.724 0-4.238-2.33-1.605-2.514-1.605-7.509 0-5.207 1.968-12.26 2.482-9.053 6.115-9.173h.031q1.332 0 2.058.878.727.907.727 3.3 0 3.541-1.544 10.292-1.18 5.207-1.181 6.812 0 .575.152.696.15 0 .423-.151 4.148-2.543 6.146-7.417 1.15-2.815 2.028-8.265.545-3.42 1.03-4.601.786-1.878 2.391-1.877 3.148 0 4.42 4.36.757 2.542 1.09 8.445.181 3.12.363 4.178.333 1.847 1.756 5.813m-17.407-37.388q-.182 2.755-1.847 4.36-1.393 1.3-3.148 1.301h-.303q-1.968-.15-3.179-1.756-1.09-1.484-1.09-3.633 0-.333.031-.666.06-.848.242-1.725.454-1.695 1.998-2.543a4.56 4.56 0 0 1 2.301-.606q.363 0 .696.03 1.756.213 2.936 1.484 1.333 1.453 1.363 3.754m15.984 0q-.181 2.755-1.847 4.36-1.392 1.3-3.148 1.301h-.303q-1.968-.15-3.178-1.756-1.09-1.484-1.09-3.633 0-.333.03-.666.06-.848.242-1.725.454-1.695 1.998-2.543a4.7 4.7 0 0 1 2.331-.606q.333 0 .666.03 1.756.213 2.937 1.484 1.332 1.453 1.362 3.754m38.599 42.383v.242q-.212 3.36-3.179 3.36-3.36 0-6.63-2.906-2.997-3.48-4.662-12.594a80 80 0 0 1-.303-1.665q-.726 1.362-2.361 5.6-2.21 5.753-3.481 8.023Q259.171 62 257.052 62q-2.21 0-3.754-1.695-2.301-2.544-2.301-6.358 0-.605.061-1.24.363-3.997.363-12.08.03-2.845.03-4.51.121-8.78.939-16.348 1.543-13.987 4.783-13.987.575 0 1.12.394 2.18.999 2.24 6.811v.212q0 3.995-1.09 12.14-.393 2.998-.423 3.784-.364 6.085-.364 11.11 0 2.241.061 4.239 1.725-1.755 3.33-6.54 1.12-3.45 2.058-4.964 1.545-2.574 4.239-3.694a2.9 2.9 0 0 1 1.18-.272q2.634 0 4.269 5.086 1.18 3.694 2.089 11.11l.181 1.453q2.06 8.084 5.722 11.292zm14.38-4.753q.333 1.785.333 3.24 0 2.905-1.302 4.45-.817.968-2.059.968-1.241 0-2.845-1.03-3.452-2.178-4.208-17.104-.122-2.392-.212-3.148-.424-4.995-.424-10.172v-1.847q0-11.686 1.15-22.886l.031-.243.211-.12q2.15-1.333 4.299-1.333 1.15 0 1.908.818 1.815 1.998 1.816 9.96 0 4.116-.484 9.808a315 315 0 0 0-.182 2.27 88 88 0 0 0-.121 4.633q0 10.383 2.089 21.736m14.319-7.236q1.937 0 3.179-1.362 1.15-1.241 1.332-3.088.03-.302.03-.605 0-1.453-.727-2.574-.968-1.514-2.845-1.755a4 4 0 0 0-.454-.03q-1.212 0-1.877.998-.697 1.03-.697 2.846 0 4.057 2.059 5.57m24.098-2.512q2.21-1.635 3.33-1.635t1.12 1.695q-.727 5.116-5.722 10.747-4.874 5.45-9.899 7.205a17 17 0 0 1-3.603.394q-8.87 0-16.347-10.05-2.543-3.422-2.543-9.385 0-2.514.454-5.51.818-5.389 8.597-7.115a9.4 9.4 0 0 1 2.089-.242q2.815 0 5.268 1.817 2.785 2.058 4.753 6.145.514 1.847.514 3.451 0 4.753-4.45 7.66-.726.483-1.937.908-1.363.484-1.635.605-.636.333-.636.848v.06q.061.637 1.06 1.726 2.119 2.3 4.874 2.3.787 0 1.635-.18 3.541-.788 7.084-4.966 4.752-5.54 5.994-6.478"/></svg>
